icon-themes/sifr_svg/cmd/sc_sectionshrinkbottom.svg

<svg viewBox="0 0 16 16" xmlns="http://www.w3.org/2000/svg"><path d="m7 2v6.5625l-.28125-.28125c-.18818-.18811-.45344-.28129-.71875-.28125h-1v1c0 .26529.09304.53057.28125.71875l2.28125 2.28125h.875l2.28125-2.28125c.18814-.18817.28122-.45344.28125-.71875v-1h-1c-.2653 0-.53058.0931-.71875.28125l-.28125.28125v-6.5625zm-5 11v2h12v-2z" fill="#555753"/></svg>

<svg xmlns="http://www.w3.org/2000/svg" viewBox="0 0 16 16">
  <path
     style="fill:#555753"
     d="M 7 2 L 7 8.5625 L 6.71875 8.28125 C 6.53057 8.09314 6.26531 7.99996 6 8 L 5 8 L 5 9 C 5 9.26529 5.09304 9.53057 5.28125 9.71875 L 7.5625 12 L 8.4375 12 L 10.71875 9.71875 C 10.90689 9.53058 10.99997 9.26531 11 9 L 11 8 L 10 8 C 9.7347 8 9.46942 8.0931 9.28125 8.28125 L 9 8.5625 L 9 2 L 7 2 z M 2 13 L 2 15 L 14 15 L 14 13 L 2 13 z "
     />
</svg>
